X:1
T:Morotapolka
C:Yngve Persson
M:2/4
L:1/16
O:Skörje, Blekinge
Q:1/4=110
Z:Peter Svensson
R:Polka
K:G
|: D2GG G2B2 | d2d2 BBG2 | A2AA AcAF | G2G2 BBG2  |
   D2GG G2B2 | d2d2 B2G2 | A2AA AcAF | G2G2 G4   :|
|: c2cc ccc2 | B2c2 d4   | A2B2 c2A2 | B2c2 d4    |
   G2GG GGG2 | A2B2 c4   | F2FF D2EF | G2G2 G4   :|

